X:835
T:Sean Ron M\'or
R:Reel
B:The Athole Collection
M:C|
L:1/8
K:D
A/G/|F(AA)B A2 D>F|G2F2E2EG|F(AA)B A2DE|F2E2D2DG|
F(AA)B A2 DF|G2F2E3G|FadB A2 D>E|F2E2D3||
f/g/|fd d/d/d geeg|fd d/d/d eAAg|fd d/d/d geeg|faef d2dg|
fd d/d/d geeg|fd d/d/d eAAg|fd d/d/d geeg faef dcBA||

